src/assets/phone-icon.svg

<svg width="26" height="26" viewBox="0 0 26 26" fill="none" xmlns="http://www.w3.org/2000/svg">
<path d="M16.25 4.875C15.6997 4.875 15.2288 5.22167 15.1249 5.69833L15.0393 6.08292C14.9353 6.565 14.4584 6.90625 13.908 6.90625H12.092C11.5416 6.90625 11.0708 6.565 10.9607 6.08292L10.8751 5.69833C10.7712 5.22167 10.3003 4.875 9.75 4.875H16.25Z" fill="#141414"/>
<path d="M18.6875 6.69732V19.3027C18.6875 20.3067 17.8487 21.125 16.8075 21.125H9.18652C8.1454 21.125 7.3125 20.3067 7.3125 19.3027V6.69732C7.3125 5.6933 8.1454 4.875 9.18652 4.875H9.83499C10.3704 4.875 10.8285 5.24643 10.9297 5.75714L11.0129 6.1692C11.12 6.68571 11.5781 7.05134 12.1136 7.05134H13.8805C14.4159 7.05134 14.88 6.68571 14.9811 6.1692L15.0644 5.75714C15.1655 5.24643 15.6236 4.875 16.1591 4.875H16.8075C17.8487 4.875 18.6875 5.6933 18.6875 6.69732Z" fill="#F2C247"/>
<path d="M11.375 18.8906C11.375 19.4515 11.8648 19.9062 12.4689 19.9062H13.5311C14.1352 19.9062 14.625 19.4515 14.625 18.8906C14.625 18.3298 14.1352 17.875 13.5311 17.875H12.4701C11.866 17.875 11.375 18.3298 11.375 18.8906Z" fill="#141414"/>
<path d="M18.5683 10.5323C18.2788 10.5323 18.0441 10.774 18.0441 11.0721L18.0441 19.5148C18.0441 20.2556 17.4534 20.8584 16.7277 20.8584H9.26593C8.54305 20.8584 7.95532 20.2556 7.95532 19.5148V6.48642C7.95532 5.74563 8.54305 5.1428 9.26593 5.1428H9.89269C9.89502 5.1428 9.89735 5.144 9.89968 5.144C10.1723 5.144 10.4082 5.34374 10.4612 5.61906L10.5428 6.04555C10.6913 6.82653 11.3594 7.39277 12.1324 7.39277H13.8647C14.6371 7.39277 15.3058 6.82653 15.4543 6.04555L15.5359 5.61906C15.5889 5.34374 15.8248 5.1434 16.0974 5.1434C16.0997 5.1434 16.1021 5.1422 16.1044 5.1422H16.7288C17.4546 5.1422 18.0453 5.74503 18.0453 6.48582L18.0453 8.32812C18.0453 8.62624 18.28 8.86797 18.5695 8.86797C18.859 8.86797 19.0938 8.62624 19.0938 8.32812L19.0937 6.48582C19.0937 5.1494 18.033 4.0625 16.7282 4.0625H9.26593C7.96522 4.0625 6.90625 5.15 6.90625 6.48582V19.5142C6.90625 20.8506 7.96464 21.9375 9.26593 21.9375H16.7277C18.0319 21.9375 19.0932 20.85 19.0932 19.5142L19.0932 11.0715C19.0926 10.774 18.8578 10.5323 18.5683 10.5323ZM14.506 5.41152L14.4245 5.8386C14.3721 6.11393 14.1362 6.31367 13.8635 6.31367H12.1318C11.8592 6.31367 11.6233 6.11393 11.5709 5.8386L11.4893 5.41152C11.4718 5.31855 11.4456 5.22917 11.4136 5.1428H14.5818C14.5503 5.22917 14.5241 5.31855 14.506 5.41152Z" fill="#EFEFEF"/>
</svg>

<svg xmlns="http://www.w3.org/2000/svg" width="26" height="26" fill="none" viewBox="0 0 26 26">
    <path fill="#141414" d="M16.25 4.875c-.55 0-1.021.347-1.125.823l-.086.385c-.104.482-.58.823-1.131.823h-1.816c-.55 0-1.021-.341-1.131-.823l-.086-.385c-.104-.476-.575-.823-1.125-.823h6.5Z"/>
    <path fill="#F2C247" d="M18.688 6.697v12.606c0 1.004-.84 1.822-1.88 1.822H9.187c-1.042 0-1.874-.818-1.874-1.822V6.697c0-1.004.832-1.822 1.874-1.822h.648c.535 0 .993.371 1.095.882l.083.412c.107.517.565.882 1.1.882h1.768c.535 0 .999-.365 1.1-.882l.083-.412c.101-.51.56-.882 1.095-.882h.649c1.04 0 1.88.818 1.88 1.822Z"/>
    <path fill="#141414" d="M11.375 18.89c0 .561.49 1.016 1.094 1.016h1.062c.604 0 1.094-.454 1.094-1.015 0-.561-.49-1.016-1.094-1.016h-1.06c-.605 0-1.096.455-1.096 1.016Z"/>
    <path fill="#EFEFEF" d="M18.568 10.532a.532.532 0 0 0-.524.54v8.443c0 .74-.59 1.343-1.316 1.343H9.266c-.723 0-1.31-.602-1.31-1.343V6.486c0-.74.587-1.343 1.31-1.343h.627l.007.001c.272 0 .508.2.561.475l.082.427c.148.78.816 1.347 1.59 1.347h1.732c.772 0 1.44-.566 1.59-1.347l.08-.427a.579.579 0 0 1 .562-.476h.632c.726 0 1.316.602 1.316 1.343v1.842c0 .298.235.54.524.54.29 0 .525-.242.525-.54V6.486c0-1.337-1.061-2.423-2.366-2.423H9.266c-1.3 0-2.36 1.087-2.36 2.423v13.028c0 1.337 1.059 2.424 2.36 2.424h7.462c1.304 0 2.365-1.088 2.365-2.424v-8.442a.533.533 0 0 0-.525-.54Zm-4.062-5.12-.082.427a.577.577 0 0 1-.56.475h-1.732a.577.577 0 0 1-.561-.475l-.082-.427a1.653 1.653 0 0 0-.075-.27h3.168a1.772 1.772 0 0 0-.076.27Z"/>
</svg>
